svgs/duotone/water.svg

<svg xmlns="http://www.w3.org/2000/svg" viewBox="0 0 576 512"><!--! Font Awesome Pro 6.0.0-alpha3 by @fontawesome - https://fontawesome.com License - https://fontawesome.com/license (Commercial License) --><defs><style>.fa-secondary{opacity:.4}</style></defs><path class="fa-primary" d="M37.78 156.4c25.33-4.625 44.72-13.31 58.19-21.25c19.5 11.53 51.47 24.68 96.04 24.68c44.55 0 76.49-13.12 96-24.65c19.52 11.53 51.45 24.59 96 24.59c44.58 0 76.55-13.09 96.05-24.62c13.47 7.938 32.86 16.62 58.19 21.25c17.56 3.375 34.06-8.344 37.25-25.72c3.172-17.38-8.344-34.03-25.72-37.22c-31.23-5.719-46.84-20.06-47.13-20.31c-12.22-12.19-32.31-12.12-44.91-.375c-1 .9375-25.14 23-73.73 23s-72.73-22.06-73.38-22.62c-12.22-12.25-32.3-12.12-44.89-.375c-1 .9375-25.14 23-73.73 23S119.3 73.76 118.6 73.2C106.4 60.95 86.35 61.04 73.74 72.85C73.09 73.45 57.48 87.79 26.24 93.51c-17.38 3.188-28.89 19.84-25.72 37.22C3.713 148.1 20.31 159.8 37.78 156.4zM549.8 381.7c-31.23-5.719-46.84-20.06-47.13-20.31c-12.22-12.19-32.31-12.12-44.91-.375C456.7 361.9 432.6 384 384 384s-72.73-22.06-73.38-22.62c-12.22-12.25-32.3-12.12-44.89-.375C264.7 361.9 240.6 384 192 384s-72.73-22.06-73.38-22.62c-12.22-12.25-32.28-12.16-44.89-.3438c-.6562 .5938-16.27 14.94-47.5 20.66c-17.38 3.188-28.89 19.84-25.72 37.22C3.713 436.3 20.31 448 37.78 444.6C63.1 440 82.49 431.3 95.96 423.4c19.5 11.53 51.51 24.62 96.08 24.62c44.55 0 76.45-13.06 95.96-24.59C307.5 434.9 339.5 448 384.1 448c44.58 0 76.5-13.09 95.1-24.62c13.47 7.938 32.86 16.62 58.19 21.25C555.8 448 572.3 436.3 575.5 418.9C578.7 401.5 567.2 384.9 549.8 381.7z"/><path class="fa-secondary" d="M384 303.8c-44.55 0-76.48-13.06-96-24.59c-19.52 11.53-51.46 24.65-96 24.65c-44.58 0-76.54-13.15-96.04-24.68C82.49 287.1 63.1 295.8 37.78 300.4C20.31 303.8 3.713 292.1 .5254 274.7C-2.646 257.4 8.869 240.7 26.24 237.5c31.23-5.719 46.84-20.06 47.5-20.66c12.61-11.81 32.67-11.91 44.89 .3438C119.3 217.8 143.4 239.8 192 239.8s72.73-22.06 73.73-23c12.59-11.75 32.67-11.88 44.89 .375c.6406 .5625 24.78 22.62 73.38 22.62s72.73-22.06 73.73-23c12.59-11.75 32.69-11.81 44.91 .375c.2813 .25 15.89 14.59 47.13 20.31c17.38 3.188 28.89 19.84 25.72 37.22c-3.188 17.38-19.69 29.09-37.25 25.72c-25.33-4.625-44.72-13.31-58.19-21.25C460.6 290.7 428.6 303.8 384 303.8z"/></svg>

<svg xmlns="http://www.w3.org/2000/svg" viewBox="0 0 576 512"><!-- Font Awesome Pro 6.0.0-alpha2 by @fontawesome - https://fontawesome.com License - https://fontawesome.com/license (Commercial License) --><defs><style>.fa-secondary{opacity:.4}</style></defs><path d="M384.01 303.821C339.463 303.821 307.525 290.758 288.01 279.227C268.494 290.758 236.557 303.821 192.01 303.821C147.432 303.821 115.463 290.727 95.963 279.196C82.494 287.133 63.104 295.821 37.775 300.446C20.307 303.821 3.713 292.102 0.525 274.727C-2.646 257.352 8.869 240.696 26.244 237.508C57.479 231.789 73.088 217.446 73.744 216.852C86.354 205.039 106.416 204.946 118.635 217.196C119.275 217.758 143.416 239.821 192.01 239.821S264.744 217.758 265.744 216.821C278.338 205.071 298.416 204.946 310.635 217.196C311.275 217.758 335.416 239.821 384.01 239.821S456.744 217.758 457.744 216.821C470.338 205.071 490.432 205.008 502.65 217.196C502.932 217.446 518.541 231.789 549.775 237.508C567.15 240.696 578.666 257.352 575.494 274.727C572.307 292.102 555.807 303.821 538.244 300.446C512.916 295.821 493.525 287.133 480.057 279.196C460.557 290.727 428.588 303.821 384.01 303.821Z" class="fa-secondary"/><path d="M37.775 156.445C63.104 151.82 82.494 143.133 95.963 135.195C115.463 146.727 147.432 159.82 192.01 159.82C236.557 159.82 268.494 146.758 288.01 135.227C307.525 146.758 339.463 159.82 384.01 159.82C428.588 159.82 460.557 146.727 480.057 135.195C493.525 143.133 512.916 151.82 538.244 156.445C555.807 159.82 572.307 148.102 575.494 130.727C578.666 113.352 567.15 96.695 549.775 93.508C518.541 87.789 502.932 73.445 502.65 73.195C490.432 61.008 470.338 61.07 457.744 72.82C456.744 73.758 432.604 95.82 384.01 95.82S311.275 73.758 310.635 73.195C298.416 60.945 278.338 61.07 265.744 72.82C264.744 73.758 240.604 95.82 192.01 95.82S119.275 73.758 118.635 73.195C106.416 60.945 86.354 61.039 73.744 72.852C73.088 73.445 57.479 87.789 26.244 93.508C8.869 96.695 -2.646 113.352 0.525 130.727C3.713 148.102 20.307 159.82 37.775 156.445ZM549.775 381.688C518.541 375.969 502.932 361.625 502.65 361.375C490.432 349.188 470.338 349.25 457.744 361C456.744 361.938 432.604 384 384.01 384S311.275 361.938 310.635 361.375C298.416 349.125 278.338 349.25 265.744 361C264.744 361.938 240.604 384 192.01 384S119.275 361.938 118.635 361.375C106.416 349.125 86.354 349.219 73.744 361.031C73.088 361.625 57.479 375.969 26.244 381.688C8.869 384.875 -2.646 401.531 0.525 418.906C3.713 436.281 20.307 448 37.775 444.625C63.104 440 82.494 431.312 95.963 423.375C115.463 434.906 147.432 448 192.01 448C236.557 448 268.494 434.938 288.01 423.406C307.525 434.938 339.463 448 384.01 448C428.588 448 460.557 434.906 480.057 423.375C493.525 431.313 512.916 440 538.244 444.625C555.807 448 572.307 436.281 575.494 418.906C578.666 401.531 567.15 384.875 549.775 381.688Z" class="fa-primary"/></svg>
